svg/u1f9a8.svg

<svg viewBox="0 0 128 128" xmlns="http://www.w3.org/2000/svg">
  <path d="M57.19,51.56c0,0-6-7.8-5.26-18.21C52.8,21.27,59.25,10.64,72.21,6.7s25.15-0.38,25.15-0.38 l-2.06,4.69c0,0,14.08,3.28,16.14,4.41c2.06,1.13,7.51,7.23,8.07,15.49s-2.75,14.96-4.32,17.27c-1.99,2.93-5.63,5.26-7.13,5.26 c-1.5,0,1.5-3.19,1.88-6.95c0.38-3.75-0.54-4.6-0.54-4.6s-0.8,3.39-1.41,5.21c-0.35,1.06-1.76,4.22-2.11,2.89 c-0.35-1.34-0.56-10.42-4.43-12.32c-1.67-0.82-4.93-2.25-12.32,3.73c-8.21,6.65-9.57,19.85-9.57,19.85s2.89,3.38,3.24,4.22 c0.35,0.84,3.82,4.99,2.32,15.91c-0.99,7.18-2.75,15.42-3.45,17.39c-0.7,1.97-1.34,5.42-4.29,6.83c-1.82,0.87-5.98,0.99-6.48-1.06 c-0.49-2.04,1.34-3.8,0.99-5.63c-0.35-1.83-2.53-3.17-6.12-0.63c-3.59,2.53-6.26,5.28-7.81,8.73c-1.55,3.45-3.1,8.59-5.98,12.18 c-2.89,3.59-5.35,4.22-9.43,3.66c-4.52-0.62-2.32-2.89-1.55-4.43c0.77-1.55,0.35-3.96,0.07-4.72c-0.7-1.9-2.53-2.11-2.53-2.11 s0.28,4.79-1.9,6.34s-5.21,3.1-8.66,1.97c-3.45-1.13-1.27-3.1-0.28-5.21c0.99-2.11,0.35-2.96,0.07-3.73 c-0.28-0.77-1.06-3.1-1.41-4.22c-0.35-1.13-0.7-3.03-0.7-3.03s-4.36,1.69-10.49-1.34c-3.81-1.88-3.94-5.07-3.66-6.69 c0.27-1.54,1.62-2.46,1.62-2.46s-0.77-7.6,0.42-11.05s2.82-4.36,2.82-4.36s-2.37-6.47,2.11-8.02c4.86-1.69,6.83,3.45,6.83,3.45 s2.18-0.56,5.49,0.63c3.31,1.2,4.72,2.18,4.93,1.83c0.21-0.35,5.42-14.92,5.42-14.92s5.7-5.77,7.11-6.62 C49.63,53.29,51.09,52.29,57.19,51.56z" fill="#4D4D4D"/>
  <path d="M20.28,90.32c0.84,0.51,4.29-3.66,8.8-6.69c4.5-3.03,7.6-2.67,7.6-2.67s3.41-2.91,7.39-0.92 c4.08,2.04,2.6,7.88,2.6,7.88s8.17-13.44,13.23-17.95c5.07-4.5,10.91-6.12,15.06-6.19s7.81,1.69,7.81,1.69s-1.5-3.28-6.55-7.53 c-5.77-4.86-11.66-3.53-17.46-0.63c-5.49,2.75-12.67,9.78-13.8,10.98c-1.13,1.2-3.94,4.15-3.94,4.15s0.35-5,1.76-8.66 c1.26-3.27,4.07-6.64,6.12-8.31c2.96-2.39,5.07-3.45,5.07-3.45s-3.94,0.07-9.5,3.87c-6.5,4.44-8.66,10.56-9.22,11.76 c-0.56,1.2-1.62,4.36-1.69,6.34c-2.04-1.41-7.25-0.92-7.25-0.92s-2.65,3.61-4.15,7.11C20.86,83.28,19.48,89.83,20.28,90.32z" fill="#DDDDDD"/>
  <path d="M70.75,55.12c0,0-3.17-0.99-5.14-1.48c-1.97-0.49-3.73-0.99-3.73-0.99s-4.86-6.69-5-16.75 c-0.14-10.07,4.65-18.09,4.65-18.09l2.67,8.02c0,0,3.25-9.16,9.92-14.01C82.37,5.85,91,3.31,99.82,6.91 c9.32,3.79,11.97,7.6,12.39,8.09c0.42,0.49,2.39,3.45,2.39,3.45s-9.28-4.12-15.56-3.17c-6.48,0.99-10.56,2.82-15.27,7.11 c-4.72,4.29-6.12,8.24-6.12,8.24s4.22-0.68,5.91-0.63c2.6,0.07,4.58,0.77,4.58,0.77s-8.45,3.38-12.32,9.78s-5.41,13.88-4.65,14.64 C71.24,55.27,70.75,55.12,70.75,55.12z" fill="#DDDDDD"/>
  <path d="M13.95,94.33c-0.53,0.38,0.87,6.1,1.48,6.26c0.77,0.21,4.79-2.82,4.79-3.52 c0-0.7-2.53-1.62-3.38-1.97C15.99,94.75,14.44,93.98,13.95,94.33z" fill="#FFA7A6"/>
  <path d="M19.37,101.93" fill="#DDDDDD"/>
  <path d="M33.54,90.2c0,1.59-1.31,3.12-3.28,2.93c-1.57-0.15-2.44-1.34-2.44-2.93s1.33-3.12,2.91-3.12 C32.69,87.08,33.54,88.61,33.54,90.2z" fill="#141414"/>
  <path d="M19.32,84.17c0,1.59-1.22,3-2.77,2.77c-1.11-0.17-1.78-1.13-1.78-2.72s0.8-2.7,1.97-2.82 C18.66,81.22,19.32,82.58,19.32,84.17z" fill="#141414"/>
  <path d="M18.33,76.38c0.13,0.13,1.42-0.56,2.53-0.99c1.15-0.44,2.18-0.72,2.25-0.94 c0.14-0.42-1.08-3.52-3.66-2.44C16.88,73.1,18.05,76.1,18.33,76.38z" fill="#141414"/>
  <path d="M39.03,83.28c0-0.58,3.57-2.3,5.02,0.52c1.45,2.82-1.6,4.93-2.06,4.79 c-0.26-0.08-0.81-1.53-1.55-2.91C39.86,84.6,39.03,83.57,39.03,83.28z" fill="#141414"/>
</svg>

<svg viewBox="0 0 128 128" xmlns="http://www.w3.org/2000/svg">
  <defs/>
  <path d="M57.19,51.56 C57.19,51.56 51.19,43.76 51.93,33.35 C52.8,21.27 59.25,10.64 72.21,6.7 C85.17,2.76 97.36,6.32 97.36,6.32 L95.3,11.01 C95.3,11.01 109.38,14.29 111.44,15.42 C113.5,16.55 118.95,22.65 119.51,30.91 C120.07,39.17 116.76,45.87 115.19,48.18 C113.2,51.11 109.56,53.44 108.06,53.44 C106.56,53.44 109.56,50.25 109.94,46.49 C110.32,42.74 109.4,41.89 109.4,41.89 C109.4,41.89 108.6,45.28 107.99,47.1 C107.64,48.16 106.23,51.32 105.88,49.99 C105.53,48.65 105.32,39.57 101.45,37.67 C99.78,36.85 96.52,35.42 89.13,41.4 C80.92,48.05 79.56,61.25 79.56,61.25 C79.56,61.25 82.45,64.63 82.8,65.47 C83.15,66.31 86.62,70.46 85.12,81.38 C84.13,88.56 82.37,96.8 81.67,98.77 C80.97,100.74 80.33,104.19 77.38,105.6 C75.56,106.47 71.4,106.59 70.9,104.54 C70.41,102.5 72.24,100.74 71.89,98.91 C71.54,97.08 69.36,95.74 65.77,98.28 C62.18,100.81 59.51,103.56 57.96,107.01 C56.41,110.46 54.86,115.6 51.98,119.19 C49.09,122.78 46.63,123.41 42.55,122.85 C38.03,122.23 40.23,119.96 41,118.42 C41.77,116.87 41.35,114.46 41.07,113.7 C40.37,111.8 38.54,111.59 38.54,111.59 C38.54,111.59 38.82,116.38 36.64,117.93 C34.46,119.48 31.43,121.03 27.98,119.9 C24.53,118.77 26.71,116.8 27.7,114.69 C28.69,112.58 28.05,111.73 27.77,110.96 C27.49,110.19 26.71,107.86 26.36,106.74 C26.01,105.61 25.66,103.71 25.66,103.71 C25.66,103.71 21.3,105.4 15.17,102.37 C11.36,100.49 11.23,97.3 11.51,95.68 C11.78,94.14 13.13,93.22 13.13,93.22 C13.13,93.22 12.36,85.62 13.55,82.17 C14.74,78.72 16.37,77.81 16.37,77.81 C16.37,77.81 14,71.34 18.48,69.79 C23.34,68.1 25.31,73.24 25.31,73.24 C25.31,73.24 27.49,72.68 30.8,73.87 C34.11,75.07 35.52,76.05 35.73,75.7 C35.94,75.35 41.15,60.78 41.15,60.78 C41.15,60.78 46.85,55.01 48.26,54.16 C49.63,53.29 51.09,52.29 57.19,51.56 Z" fill="#4D4D4D"/>
  <path d="M20.28,90.32 C21.12,90.83 24.57,86.66 29.08,83.63 C33.58,80.6 36.68,80.96 36.68,80.96 C36.68,80.96 40.09,78.05 44.07,80.04 C48.15,82.08 46.67,87.92 46.67,87.92 C46.67,87.92 54.84,74.48 59.9,69.97 C64.97,65.47 70.81,63.85 74.96,63.78 C79.11,63.71 82.77,65.47 82.77,65.47 C82.77,65.47 81.27,62.19 76.22,57.94 C70.45,53.08 64.56,54.41 58.76,57.31 C53.27,60.06 46.09,67.09 44.96,68.29 C43.83,69.49 41.02,72.44 41.02,72.44 C41.02,72.44 41.37,67.44 42.78,63.78 C44.04,60.51 46.85,57.14 48.9,55.47 C51.86,53.08 53.97,52.02 53.97,52.02 C53.97,52.02 50.03,52.09 44.47,55.89 C37.97,60.33 35.81,66.45 35.25,67.65 C34.69,68.85 33.63,72.01 33.56,73.99 C31.52,72.58 26.31,73.07 26.31,73.07 C26.31,73.07 23.66,76.68 22.16,80.18 C20.86,83.28 19.48,89.83 20.28,90.32 Z" fill="#DDDDDD"/>
  <path d="M70.75,55.12 C70.75,55.12 67.58,54.13 65.61,53.64 C63.64,53.15 61.88,52.65 61.88,52.65 C61.88,52.65 57.02,45.96 56.88,35.9 C56.74,25.83 61.53,17.81 61.53,17.81 L64.2,25.83 C64.2,25.83 67.45,16.67 74.12,11.82 C82.37,5.85 91,3.31 99.82,6.91 C109.14,10.7 111.79,14.51 112.21,15 C112.63,15.49 114.6,18.45 114.6,18.45 C114.6,18.45 105.32,14.33 99.04,15.28 C92.56,16.27 88.48,18.1 83.77,22.39 C79.05,26.68 77.65,30.63 77.65,30.63 C77.65,30.63 81.87,29.95 83.56,30 C86.16,30.07 88.14,30.77 88.14,30.77 C88.14,30.77 79.69,34.15 75.82,40.55 C71.95,46.95 70.41,54.43 71.17,55.19 C71.24,55.27 70.75,55.12 70.75,55.12 Z" fill="#DDDDDD"/>
  <path d="M13.95,94.33 C13.42,94.71 14.82,100.43 15.43,100.59 C16.2,100.8 20.22,97.77 20.22,97.07 C20.22,96.37 17.69,95.45 16.84,95.1 C15.99,94.75 14.44,93.98 13.95,94.33 Z" fill="#FFA7A6"/>
  <path d="M33.54,90.2 C33.54,91.79 32.23,93.32 30.26,93.13 C28.69,92.98 27.82,91.79 27.82,90.2 C27.82,88.61 29.15,87.08 30.73,87.08 C32.69,87.08 33.54,88.61 33.54,90.2 Z" fill="#141414"/>
  <path d="M19.32,84.17 C19.32,85.76 18.1,87.17 16.55,86.94 C15.44,86.77 14.77,85.81 14.77,84.22 C14.77,82.63 15.57,81.52 16.74,81.4 C18.66,81.22 19.32,82.58 19.32,84.17 Z" fill="#141414"/>
  <path d="M18.33,76.38 C18.46,76.51 19.75,75.82 20.86,75.39 C22.01,74.95 23.04,74.67 23.11,74.45 C23.25,74.03 22.03,70.93 19.45,72.01 C16.88,73.1 18.05,76.1 18.33,76.38 Z" fill="#141414"/>
  <path d="M39.03,83.28 C39.03,82.7 42.6,80.98 44.05,83.8 C45.5,86.62 42.45,88.73 41.99,88.59 C41.73,88.51 41.18,87.06 40.44,85.68 C39.86,84.6 39.03,83.57 39.03,83.28 Z" fill="#141414"/>
</svg>
